X:1
T:Lady Montgomery's -- Reel
R:reel
B:Ryan's Mammoth Collection
Z: Contributed by Ray Davies,  ray:davies99.freeserve.co.uk
M:C|
L:1/8
K:D
vd2dA FAAF|d2fd cdef|d2dA FGAF|E2ed cdef|
d2dA FAAF|d2fd cdef|d2dA FGAF|E2ed cdef::
d2ag fdaf|d2ag fgab|d2ag fdaf|(gf)ed cdef|
d2ag fdaf|d2ag fgab|afge fdec|dBAB cdef:|
